x-pack/solutions/observability/plugins/observability/public/pages/overview/components/sections/metrics/logos/freebsd.svg

<?xml version="1.0" encoding="UTF-8" standalone="no"?>
<svg width="256px" height="252px" viewBox="0 0 256 252" version="1.1" xmlns="http://www.w3.org/2000/svg" xmlns:xlink="http://www.w3.org/1999/xlink" preserveAspectRatio="xMidYMid">
	<g fill="#B5010F">
		<path d="M252.722963,5.10923976 C266.230721,18.6106793 228.784285,77.9582562 222.453709,84.2919919 C216.123132,90.6130917 200.043973,84.7974272 186.542533,71.2928287 C173.034776,57.7913892 167.215952,41.7090709 173.546529,35.3784942 C179.873947,29.0447585 239.218365,-8.39851769 252.722963,5.10923976"></path>
		<path d="M63.3047797,19.3941039 C42.6830209,7.69327755 13.3393448,-5.32168052 4.00458729,4.01307703 C-5.4533701,13.4678754 8.0385925,43.4717763 19.8626187,64.1314428 C30.3851491,45.8378452 45.3523509,30.4378645 63.3047797,19.3941039"></path>
		<path d="M232.123317,79.6356695 C234.021858,86.0768102 233.680689,91.3965163 230.600693,94.4701945 C223.407718,101.666329 203.976891,94.0058259 186.4604,77.3359391 C185.237878,76.2397763 184.024834,75.102547 182.833902,73.9084562 C176.500166,67.5715616 171.572172,60.8271597 168.41952,54.6166239 C162.284799,43.610771 160.74954,33.8906191 165.386908,29.2532506 C167.914085,26.7292332 171.957567,26.0405777 176.88872,26.9282483 C180.104551,24.8938714 183.901634,22.6288896 188.065157,20.3070464 C171.136234,11.4777241 151.888628,6.48970982 131.472202,6.48970982 C63.7533535,6.48970982 8.85360686,61.3799796 8.85360686,129.105146 C8.85360686,196.817677 63.7533535,251.714264 131.472202,251.714264 C199.191051,251.714264 254.087638,196.817677 254.087638,129.105146 C254.087638,107.235594 248.347789,86.7275581 238.321217,68.9488727 C236.154163,72.9039036 234.04713,76.5272426 232.123317,79.6356695"></path>
	</g>
</svg>

<svg xmlns="http://www.w3.org/2000/svg" width="256" height="252" preserveAspectRatio="xMidYMid"><g fill="#B5010F"><path d="M252.723 5.11c13.508 13.5-23.939 72.848-30.27 79.182-6.33 6.321-22.409.505-35.91-13-13.508-13.5-19.327-29.583-12.996-35.914 6.327-6.333 65.671-43.777 79.176-30.269M63.305 19.394c-20.622-11.7-49.966-24.716-59.3-15.38-9.458 9.454 4.034 39.458 15.858 60.117a126.8 126.8 0 0 1 43.442-44.737"/><path d="M232.123 79.636c1.899 6.44 1.558 11.76-1.522 14.834-7.193 7.196-26.624-.464-44.14-17.134a89 89 0 0 1-3.627-3.428c-6.334-6.336-11.262-13.08-14.414-19.291-6.135-11.006-7.67-20.726-3.033-25.364 2.527-2.524 6.57-3.212 11.502-2.325 3.216-2.034 7.013-4.3 11.176-6.621-16.929-8.83-36.176-13.817-56.593-13.817C63.753 6.49 8.854 61.38 8.854 129.105c0 67.713 54.9 122.61 122.618 122.61 67.72 0 122.616-54.897 122.616-122.61 0-21.87-5.74-42.377-15.767-60.156-2.167 3.955-4.274 7.578-6.198 10.687"/></g></svg>
